components/Common/Svg/svgs/swift.svg

<svg
  width="61"
  height="61"
  viewBox="0 0 61 61"
  fill="none"
  xmlns="http://www.w3.org/2000/svg"
>
  <g clip-path="url(#clip0)">
    <path
      d="M13.5563 0H47.3446C48.9887 0 50.5852 0.262109 52.134 0.810156C54.3739 1.62031 56.3993 3.05 57.9243 4.90859C59.4731 6.76719 60.4977 9.05469 60.8551 11.4375C60.9981 12.3191 61.0219 13.2008 61.0219 14.0824V47.0367C61.0219 48.0852 60.9743 49.1574 60.7598 50.182C60.2833 52.541 59.1633 54.757 57.543 56.5441C55.9465 58.3312 53.8497 59.6656 51.586 60.3805C50.204 60.8094 48.7743 61 47.3208 61C46.6774 61 13.461 61 12.9606 60.9762C10.5301 60.857 8.1235 60.0707 6.09811 58.7125C4.12037 57.3781 2.50006 55.5195 1.45162 53.375C0.546155 51.5402 0.093421 49.491 0.093421 47.4418V13.5582C0.0457647 11.5328 0.474671 9.53125 1.35631 7.72031C2.38092 5.57578 3.97741 3.69336 5.95514 2.35898C7.98053 0.976953 10.3633 0.166797 12.7938 0.0476562C13.0321 0 13.2942 0 13.5563 0Z"
      fill="#7C7C7C"
    ></path>
    <path
      d="M51.4688 49.8961C51.2543 49.5625 51.016 49.2289 50.7539 48.9191C50.1582 48.2043 49.4672 47.5848 48.7047 47.0606C47.7516 46.4172 46.6316 46.0121 45.4879 45.9645C44.6777 45.9168 43.8676 46.0598 43.1051 46.3457C42.3426 46.6078 41.6039 46.9891 40.8891 47.3703C40.0551 47.7992 39.2211 48.2281 38.3395 48.5855C37.291 49.0145 36.1949 49.3481 35.075 49.5863C33.6691 49.8484 32.2395 49.9438 30.8336 49.9199C28.284 49.8723 25.7344 49.491 23.3039 48.7762C21.1594 48.1328 19.1102 47.2512 17.1801 46.1313C15.4883 45.1543 13.9156 44.0344 12.4383 42.7715C11.223 41.723 10.1031 40.6031 9.05469 39.4117C8.33984 38.5777 7.64883 37.6961 7.00547 36.7906C6.74336 36.4332 6.50508 36.052 6.29063 35.6707L0 28.8797V13.5105C0 6.05234 6.02852 0 13.4867 0H25.5199L34.4316 9.05469C54.5426 22.732 48.0375 37.8152 48.0375 37.8152C48.0375 37.8152 53.7562 44.2488 51.4688 49.8961Z"
      fill="#6A6A6A"
    ></path>
    <path
      d="M34.4777 9.05469C54.5887 22.732 48.0836 37.8152 48.0836 37.8152C48.0836 37.8152 53.8023 44.2727 51.491 49.9199C51.491 49.9199 49.132 45.9645 45.1766 45.9645C41.3641 45.9645 39.1242 49.9199 31.4516 49.9199C14.3668 49.9199 6.28906 35.6469 6.28906 35.6469C21.682 45.7738 32.1902 38.6016 32.1902 38.6016C25.2563 34.5746 10.5066 15.3215 10.5066 15.3215C23.35 26.2586 28.902 29.1418 28.902 29.1418C25.5898 26.4016 16.2969 13.0102 16.2969 13.0102C23.7312 20.5398 38.5047 31.048 38.5047 31.048C42.6984 19.4199 34.4777 9.05469 34.4777 9.05469Z"
      fill="white"
    ></path>
  </g>
  <defs>
    <clipPath id="clip0">
      <rect width="61" height="61" fill="white"></rect>
    </clipPath>
  </defs>
</svg>

<svg width="61" height="61" viewBox="0 0 61 61" fill="none" xmlns="http://www.w3.org/2000/svg"><g clip-path="url(#a)"><path d="M13.556 0h33.789c1.644 0 3.24.262 4.789.81a13.46 13.46 0 0 1 5.79 4.099 13.36 13.36 0 0 1 2.931 6.529c.143.881.167 1.763.167 2.644v32.955c0 1.048-.048 2.12-.262 3.145a13.488 13.488 0 0 1-3.217 6.362 13.49 13.49 0 0 1-5.957 3.837c-1.382.428-2.812.619-4.265.619-.644 0-33.86 0-34.36-.024a13.597 13.597 0 0 1-6.863-2.264 13.772 13.772 0 0 1-4.646-5.337C.546 51.54.093 49.491.093 47.442V13.558A12.649 12.649 0 0 1 1.356 7.72a13.53 13.53 0 0 1 4.6-5.361A13.347 13.347 0 0 1 12.793.048c.238-.048.5-.048.762-.048Z" fill="#7C7C7C"/><path d="M51.469 49.896a9.32 9.32 0 0 0-.715-.977 10.121 10.121 0 0 0-2.05-1.858c-.952-.644-2.072-1.049-3.216-1.096a5.824 5.824 0 0 0-2.383.38c-.762.263-1.501.644-2.216 1.025-.834.43-1.668.858-2.55 1.216a19.149 19.149 0 0 1-3.264 1 21.215 21.215 0 0 1-4.241.334c-2.55-.048-5.1-.429-7.53-1.144a28.487 28.487 0 0 1-6.124-2.645 31.576 31.576 0 0 1-4.742-3.36 34.65 34.65 0 0 1-3.383-3.36 36.785 36.785 0 0 1-2.05-2.62c-.262-.358-.5-.739-.714-1.12L0 28.88V13.51C0 6.053 6.029 0 13.487 0H25.52l8.912 9.055c20.11 13.677 13.605 28.76 13.605 28.76s5.72 6.434 3.432 12.081Z" fill="#6A6A6A"/><path d="M34.478 9.055c20.11 13.677 13.606 28.76 13.606 28.76s5.718 6.458 3.407 12.105c0 0-2.359-3.956-6.314-3.956-3.813 0-6.053 3.956-13.725 3.956-17.085 0-25.163-14.273-25.163-14.273 15.393 10.127 25.901 2.955 25.901 2.955-6.934-4.027-21.683-23.28-21.683-23.28 12.843 10.937 18.395 13.82 18.395 13.82-3.312-2.74-12.605-16.132-12.605-16.132 7.434 7.53 22.208 18.038 22.208 18.038 4.193-11.628-4.027-21.993-4.027-21.993Z" fill="#fff"/></g><defs><clipPath id="a"><path fill="#fff" d="M0 0h61v61H0z"/></clipPath></defs></svg>
